src/assets/Imgs/profile/email.svg

<svg width="16" height="16" viewBox="0 0 16 16" fill="none" xmlns="http://www.w3.org/2000/svg">
<g id="&#233;&#130;&#174;&#231;&#174;&#177;&#229;&#156;&#176;&#229;&#157;&#128;">
<path id="Message" fill-rule="evenodd" clip-rule="evenodd" d="M10.9634 3C11.768 3 12.542 3.318 13.1114 3.8886C13.6814 4.458 14 5.226 14 6.03V10.77C14 12.444 12.638 13.8 10.9634 13.8H5.036C3.3614 13.8 2 12.444 2 10.77V6.03C2 4.356 3.3554 3 5.036 3H10.9634ZM11.9181 6.92395L11.9661 6.87595C12.1095 6.70195 12.1095 6.44995 11.9595 6.27595C11.8761 6.18655 11.7615 6.13195 11.6421 6.11995C11.5161 6.11335 11.3961 6.15595 11.3055 6.23995L8.60012 8.39995C8.25212 8.68855 7.75352 8.68855 7.40013 8.39995L4.70012 6.23995C4.51353 6.10195 4.25553 6.11995 4.10013 6.28195C3.93813 6.44395 3.92013 6.70195 4.05753 6.88195L4.13613 6.95995L6.86612 9.08995C7.20212 9.35395 7.60952 9.49795 8.03612 9.49795C8.46152 9.49795 8.87612 9.35395 9.21152 9.08995L11.9181 6.92395Z" fill="#FF4949"/>
</g>
</svg>

<svg fill="none" height="16" viewBox="0 0 16 16" width="16" xmlns="http://www.w3.org/2000/svg"><path clip-rule="evenodd" d="m10.9634 3c.8046 0 1.5786.318 2.148.8886.57.5694.8886 1.3374.8886 2.1414v4.74c0 1.674-1.362 3.03-3.0366 3.03h-5.9274c-1.6746 0-3.036-1.356-3.036-3.03v-4.74c0-1.674 1.3554-3.03 3.036-3.03zm.9547 3.92395.048-.048c.1434-.174.1434-.426-.0066-.6-.0834-.0894-.198-.144-.3174-.156-.126-.0066-.246.036-.3366.12l-2.70538 2.16c-.348.2886-.8466.2886-1.19999 0l-2.70001-2.16c-.18659-.138-.44459-.12-.59999.042-.162.162-.18.42-.0426.6l.0786.078 2.72999 2.13c.336.264.7434.408 1.17.408.4254 0 .84-.144 1.1754-.408z" fill="#ff4949" fill-rule="evenodd"/></svg>
